X:1
T:Untitled 5 (Austral)
M:4/4
L:1/4
K:D
 E E E E| D C/2B,/2 C D| E E E D/2E/2| F4| D F A d| d d c2| B B F ^G|\
 A4| E E A E| F3/2 G/2 F2| A A d A| B4| B A G A| B A G A| B A G F|\
 E4| D D D D| D C/2B,/2 C D| E E E D/2E/2| F4| D F A d| d2 A2| G F E3/2 D/2|\
 D4|
